images/type_farm.svg

<svg enable-background="new 0 0 100 100" viewBox="0 0 100 100" xmlns="http://www.w3.org/2000/svg"><path d="m65.9 25.2h-1.5c-3.3 0-6.3 1-8.8 2.7.5-4.7-1-9.5-4.5-13.1l-1.1-1.1-1.1 1.1c-3.4 3.4-5 8.1-4.6 12.6-2.5-1.7-5.5-2.6-8.7-2.6h-1.5v1.5c0 3.4 1.1 6.6 2.9 9.2-.5 0-1-.1-1.4-.1h-1.5v1.5c0 3.4 1.1 6.6 2.9 9.2-.5 0-1-.1-1.4-.1h-1.5v1.5c0 3.4 1.1 6.6 2.9 9.2-.5 0-1-.1-1.4-.1h-1.5v1.4c0 8.3 6.3 15.1 14.4 15.8v.5 10.4c0 .8.7 1.5 1.5 1.5s1.5-.7 1.5-1.5v-10.4c8.1-.8 14.4-7.6 14.4-15.8v-1.5h-1.5c-.5 0-1 0-1.4.1 1.8-2.6 2.9-5.8 2.9-9.2v-1.5h-1.5c-.5 0-1 0-1.4.1 1.8-2.6 2.9-5.8 2.9-9.2v-1.5h-1.5c-.5 0-1 0-1.4.1 1.8-2.6 2.9-5.8 2.9-9.2zm-17.5 24.4c-5.8-.7-10.5-5.4-11.2-11.2 5.8.8 10.5 5.4 11.2 11.2zm0 10.6c-5.8-.7-10.5-5.4-11.2-11.2 5.8.8 10.5 5.4 11.2 11.2zm14.4-10.7c-.7 5.8-5.4 10.5-11.2 11.2.7-5.8 5.4-10.5 11.2-11.2zm0-10.6c-.7 5.8-5.4 10.5-11.2 11.2.7-5.8 5.4-10.5 11.2-11.2zm0-10.6c-.7 5.8-5.4 10.5-11.2 11.2.7-5.9 5.4-10.5 11.2-11.2zm-12.8-10.2c3.6 4.6 3.6 11.2 0 15.8-.5-1-1-1.9-1.7-2.8-1.8-4.2-1.2-9.2 1.7-13zm-4.2 14.6c.4 1 1 1.9 1.6 2.7.5 1.1.8 2.3 1 3.5-5.8-.7-10.5-5.4-11.2-11.2 3.5.6 6.5 2.4 8.6 5zm-8.6 26.9c5.8.8 10.5 5.4 11.2 11.2-5.8-.7-10.5-5.3-11.2-11.2zm14.4 11.7c.7-5.8 5.4-10.5 11.2-11.2-.7 5.8-5.4 10.5-11.2 11.2z"/></svg>

<svg xmlns="http://www.w3.org/2000/svg" xmlns:xlink="http://www.w3.org/1999/xlink" version="1.1" x="0px" y="0px" viewBox="0 0 100 100" style="enable-background:new 0 0 100 100;" xml:space="preserve"><path d="M65.9,25.2h-1.5c-3.3,0-6.3,1-8.8,2.7c0.5-4.7-1-9.5-4.5-13.1L50,13.7l-1.1,1.1c-3.4,3.4-5,8.1-4.6,12.6  c-2.5-1.7-5.5-2.6-8.7-2.6h-1.5v1.5c0,3.4,1.1,6.6,2.9,9.2c-0.5,0-1-0.1-1.4-0.1h-1.5v1.5c0,3.4,1.1,6.6,2.9,9.2  c-0.5,0-1-0.1-1.4-0.1h-1.5v1.5c0,3.4,1.1,6.6,2.9,9.2c-0.5,0-1-0.1-1.4-0.1h-1.5V58c0,8.3,6.3,15.1,14.4,15.8v0.5v10.4  c0,0.8,0.7,1.5,1.5,1.5s1.5-0.7,1.5-1.5V74.3c8.1-0.8,14.4-7.6,14.4-15.8V57h-1.5c-0.5,0-1,0-1.4,0.1c1.8-2.6,2.9-5.8,2.9-9.2v-1.5  h-1.5c-0.5,0-1,0-1.4,0.1c1.8-2.6,2.9-5.8,2.9-9.2v-1.5h-1.5c-0.5,0-1,0-1.4,0.1c1.8-2.6,2.9-5.8,2.9-9.2V25.2z M48.4,49.6  c-5.8-0.7-10.5-5.4-11.2-11.2C43,39.2,47.7,43.8,48.4,49.6z M48.4,60.2c-5.8-0.7-10.5-5.4-11.2-11.2C43,49.8,47.7,54.4,48.4,60.2z   M62.8,49.5c-0.7,5.8-5.4,10.5-11.2,11.2C52.3,54.9,57,50.2,62.8,49.5z M62.8,38.9c-0.7,5.8-5.4,10.5-11.2,11.2  C52.3,44.3,57,39.6,62.8,38.9z M62.8,28.3c-0.7,5.8-5.4,10.5-11.2,11.2C52.3,33.6,57,29,62.8,28.3z M50,18.1  c3.6,4.6,3.6,11.2,0,15.8c-0.5-1-1-1.9-1.7-2.8C46.5,26.9,47.1,21.9,50,18.1z M45.8,32.7c0.4,1,1,1.9,1.6,2.7c0.5,1.1,0.8,2.3,1,3.5  c-5.8-0.7-10.5-5.4-11.2-11.2C40.7,28.3,43.7,30.1,45.8,32.7z M37.2,59.6C43,60.4,47.7,65,48.4,70.8C42.6,70.1,37.9,65.5,37.2,59.6z   M51.6,71.3c0.7-5.8,5.4-10.5,11.2-11.2C62.1,65.9,57.4,70.6,51.6,71.3z"></path></svg>
